2024/special/img/under_line_mobile/wallpaper_left.svg

<svg width="90" height="26" viewBox="0 0 90 26" fill="none" xmlns="http://www.w3.org/2000/svg">
<path d="
    M5 22.5
    L0 20.1132
    V25.8868
    L5 23.5
    V22.5
    Z
    M4.5 23.5
    H64.4142
    V22.5
    H4.5
    V23.5
    Z
    M64.4142 23.5
    L85.4142 2.5
    H84
    L63 23.5
    Z" fill="black"/>
</svg>

<svg xmlns="http://www.w3.org/2000/svg" width="90" height="26" fill="none" viewBox="0 0 90 26"><path fill="#000" d="m5 22.5-5-2.39v5.78l5-2.39zm-.5 1h59.91v-1H4.5zm59.91 0 21-21H84l-21 21Z"/></svg>
